!!!!SEGMENT: 028-1-BH-019.krn
!!!COM: Chopin, Fryderyk
!!!OTL: Prelude No. 19.
!!!OPS: Op. 28
!!!PTL: Vingt-quatre Preludes pour le Piano
!!!PPR: Breitkopf & Härtel
!!!PPP: Leipzig
!!!NIFC-rismID:  1001013147
!!!NIFC-shelfmark: PL-Wbfc 4372/n
!!!OMD: Vivace.
!!!system-decoration: {(s1,s2)}
**kern	**kern	**dynam
*part1	*part1	*part1
*	*I"No. 19.	*
*staff2	*staff1	*
*clefF4	*clefG2	*
*k[b-e-a-]	*k[b-e-a-]	*
*E-:	*E-:	*
*M3/4	*M3/4	*
!	!LO:TX:b:Bi:t=legato.	!
!	!LO:TX:t=P:OMD 'Vivace.' isn't displayed:problem	!
4r	4b-	.
=1	=1	=1
*Xtuplet	*Xtuplet	*
*ped	*	*
12EE-L	12b-L	<
12G	12B-	.
12BB-J	12e-J	.
12EE-L	12ee-L/	.
12G	12e-	.
12BB-J	12b-J	.
12EE-L	12ggL/	.
12B-	12g	.
12BB-J	12ee-J	.
=2	=2	=2
!LO:TX:b:t=P:mixed beam:problem	!	!
12EE-L/	12bb-L	.
12e-\	12b-	.
12GJ\	12ggJ	.
!LO:TX:b:t=P:mixed beam:problem	!	!
12BB-L/	12eee-L	.
12g\	12ee-	.
12B-J\	12bb-J	.
12E-L	12gggL	.
12b-	12ee-	.
*Xped	*	*
12B-J	12bb-J	[
=3	=3	=3
*ped	*	*
12E-L	12fffL	>
*Xped	*	*
12bn	12dd	.
12BnJ	12aa-J	.
*ped	*	*
12E-L	12eee-L	.
*Xped	*	*
12cc	12ee-	.
12cJ	12aa-J	.
*ped	*	*
12E-L	12cccL	.
12a-	12cc	.
*Xped	*	*
12dJ	12aa-J	]]
=4	=4	=4
*ped	*	*
12E-L	12cccL	>
12g	12cc	.
*Xped	*	*
12e-J	12ggJ	.
*ped	*	*
12B-L	12bb-L	.
12g	12b-	.
12e-J	12ee-J	.
12E-L	12ggL	.
12e-	12g	.
*Xped	*	*
12GJ	12b-J	]]
=5	=5	=5
*ped	*	*
!LO:TX:b:t=P:mixed beam:problem	!	!
12FFL/	12ee-L/	<
12c\	12e-	.
*Xped	*	*
12FJ\	12ccnJ	.
*ped	*	*
12CL	12ddL	.
12c	12d	.
*Xped	*	*
12FJ	12a-J	.
*ped	*	*
!LO:TX:b:t=P:mixed beam:problem	!	!
12FFL/	12ee-L	.
12c\	12e-	.
*Xped	*	*
12FJ\	12a-J	[[
!!LO:LB:g=original
=6	=6	=6
*ped	*	*
12BB-L	12ggL/	>
12e-	12g	.
*Xped	*	*
12FJ	12b-J	.
*ped	*	*
12DL	12ffL/	.
12d	12f	.
12FJ	12b-J	.
12BB-L	12ddL	.
12B-	12d	.
*Xped	*	*
12FJ	12fJ	]]
=7	=7	=7
*ped	*	*
!LO:TX:b:t=P:mixed beam:problem	!	!
12FFL/	12ee-L	<
12c\	12e-	.
*Xped	*	*
12FJ\	12anJ	.
*ped	*	*
12CL	12ddL	.
12Bn	12d	.
12FJ	12aJ	.
!LO:TX:b:t=P:mixed beam:problem	!	!
12FFL/	12ee-L	.
12c\	12e-	.
*Xped	*	*
12FJ\	12aJ	[
=8	=8	=8
*ped	*	*
12BB-L	12ggL	>
12e-	12g	.
*Xped	*	*
12A-J	12ccJ	.
*ped	*	*
12FL	12ffL	.
12d	12f	.
12A-J	12a-J	.
12BB-L	12ccL	.
12A-	12c	.
*Xped	*	*
12DJ	12fJ	]
=9	=9	=9
12EE-L	12b-L	<
12G	12B-	.
12BB-J	12gJ	.
12EE-L	12ee-L	.
12G	12e-	.
12BB-J	12b-J	.
12EE-L	12ggL	.
12B-	12g	.
12BB-J	12ee-J	.
=10	=10	=10
12EE-L	12bb-L	.
12e-	12b-	.
12GJ	12ggJ	.
12BB-L	12eee-L	.
12g	12ee-	.
12B-J	12bb-J	.
12E-L	12gggL	.
12b-	12ee-	.
12B-J	12bb-J	[
=11	=11	=11
12E-L	12fffL	>
12bn	12dd	.
12BnJ	12aa-J	.
12E-L	12eee-L	.
12cc	12ee-	.
12cJ	12aa-J	.
12E-L	12cccL	.
12a-	12cc	.
12dJ	12aa-J	]
!!LO:LB:g=original
=12	=12	=12
12E-L	12cccL	>
12g	12cc	.
12e-J	12ggJ	.
12B-L	12bb-L	.
12g	12b-	.
12e-J	12ee-J	.
12CL	12ggL	.
12e-	12g	.
12GJ	12ee-J	]
=13	=13	=13
*ped	*	*
12C-XL	12gg-XL	<
12e-	12g-	.
*Xped	*	*
12AnJ	12ee-J	.
*ped	*	*
12E-L	12ffL	.
12e-	12f	.
*Xped	*	*
12AJ	12ee-J	.
*ped	*	*
12C-L	12ff#XL	.
12e-	12f#	.
*Xped	*	*
12AJ	12ee-J	.
=14	=14	=14
*ped	*	*
12BB-L	12ggnL	.
12d	12gny	.
*Xped	*	*
12GJ	12ddJ	.
*ped	*	*
12AAnL	12aanL	.
12d	12an	.
*Xped	*	*
12F#XJ	12ddJ	.
*ped	*	*
12GGL	12bb-L	.
12d	12b-	.
*Xped	*	*
12GJ	12ddJ	[
=15	=15	=15
*ped	*	*
!LO:TX:b:t=P:mixed beam:problem	!	!
12FFL/	12cccL	.
12b-\	12cc	.
12e-J\	12ffJ	.
12FL	12dddL	.
12b-	12dd	.
*Xped	*	*
12e-J	12ffJ	.
*ped	*	*
12cL	12aanL	.
12f	12an	.
*Xped	*	*
12e-J	12ffJ	.
=16	=16	=16
*ped	*	*
12BB-L	12cccL	.
12e-	12cc	>
*Xped	*	*
12FJ	12ffJ	.
*ped	*	*
12BB-L	12bb-L	.
12d	12b-	.
*Xped	*	*
12FJ	12ffJ	.
*ped	*	*
12BB-L	12ffL	.
12d-X	12f	.
*Xped	*	*
12FJ	12b-J	]
=17	=17	=17
*ped	*	*
12AA-L	12ffL	<
12c-X	12f	.
12FJ	12cc-XJ	.
12D-XL	12ee-L\	.
12c-	12e-	.
*Xped	*	*
12FJ	12b-J	.
*ped	*	*
!LO:TX:b:t=P:mixed beam:problem	!	!
12DD-iL/	12ffL\	.
12c-\	12d-X	.
*Xped	*	*
12FJ\	12a-J	[
!!LO:LB:g=original
=18	=18	=18
*ped	*	*
12GG-XL	12aa-L/	>
12B-	12d-X	.
12G-J	12b-J	.
12D-XL	12gg-XL/	.
12B-	12d-	.
12G-J	12b-J	.
12GG-L	12dd-L/	.
12B-	12d-	.
*Xped	*	*
12D-J	12b-J	]
=19	=19	=19
*ped	*	*
!LO:TX:t=P:mixed beam:problem	!	!
12DD-XL/	12ffL/	<
12c-X\	12d-X	.
12FJ\	12cc-XJ	.
12AA-L	12ee-L	.
12c-	12d-	.
12FJ	12b-J	.
!LO:TX:t=P:mixed beam:problem	!	!
12DD-L/	12ffL	.
12c-\	12d-	.
*Xped	*	*
12FJ\	12a-J	[
=20	=20	=20
*ped	*	*
12GG-XL	12aa-L/	>
12B-	12d-X	.
12G-iJ	12b-J	.
12D-XL	12gg-XL/	.
12B-	12d-	.
12G-J	12b-J	.
12GG-L	12ffL/	.
12B-	12d-	.
*Xped	*	*
12D-J	12b-J	]
=21	=21	=21
*ped	*	*
12GG-XL	12ff-XL\	<
12B-	12d-X	.
12D-XJ	12b-J	.
12GG-L	12bb-L	.
12d-i	12a-X	.
12G-J	12dd-XJ	.
12GG-L	12ddd-XL	.
12en	12b-	.
*Xped	*	*
12B-J	12eenJ	[
=22	=22	=22
*ped	*	*
12FFL<	12dddnL	>
12f	12b-	.
*Xped	*	*
12B-J	12ffJ	.
*ped	*	*
12FL	12eee-L	.
12g	12b-	.
*Xped	*	*
12B-J	12ggJ	.
*ped	*	*
12FL	12bbnL	.
12f	12g#X	.
*Xped	*	*
12BnJ	12ddJ	]
=23	=23	=23
*ped	*	*
12FL	12cccL	.
12f	12an	.
*Xped	*	*
12cJ	12ee-J	.
*ped	*	*
12FL	12dddL	.
12f	12a	.
*Xped	*	*
12e-J	12ffJ	.
*ped	*	*
12FL	12aanL	.
12e-	12f	.
*Xped	*	*
12AnJ	12ccJ	.
!!LO:LB:g=original
=24	=24	=24
*ped	*	*
12BB-L	12cccL	>
12e-	12f	.
*Xped	*	*
12A-J	12ee-J	.
*ped	*	*
12BB-L	12bb-L	.
12d	12f	.
*Xped	*	*
12FJ	12ddJ	.
*ped	*	*
12BB-L	12ffL	.
12d-X	12f	.
*Xped	*	*
12FJ	12b-J	]]
=25	=25	=25
*ped	*	*
12AA-L	12ffL/	<
12c-X	12f	.
12FJ	12cc-XJ	.
12D-XL	12ee-L/	.
*Xped	*	*
12c-	12e-	.
12FJ	12b-J	.
*ped	*	*
!LO:TX:t=P:mixed beam:problem	!	!
12DD-L/	12ffL/	.
12c-\	12d-X	.
*Xped	*	*
12FJ\	12a-J	[
=26	=26	=26
*ped	*	*
12GG-XL	12aa-L/	>
12B-	12d-X	.
12G-XJ	12b-J	.
12D-XL	12gg-XL/	.
*Xped	*	*
12B-	12d-	.
12G-J	12b-J	.
*ped	*	*
12GG-L	12dd-L/	.
12B-	12d-	]]
12D-J	12b-J	.
=27	=27	=27
!LO:TX:t=P:mixed beam:problem	!	!
12DD-XL/	12ffL/	<
*Xped	*	*
12c-X\	12d-X	.
12FJ\	12cc-XJ	.
*ped	*	*
12AA-L	12ee-L	.
12c-	12d-	.
*Xped	*	*
12FJ	12b-J	.
*ped	*	*
!LO:TX:t=P:mixed beam:problem	!	!
12DD-L/	12ffL	.
12c-\	12d-	.
*Xped	*	*
12FJ\	12a-J	[
=28	=28	=28
12GG-XL	12aa-XL/	.
12B-	12d-X	.
12G-J	12b-J	.
12D-XL	12gg-XL/	.
12B-	12d-	.
12G-J	12b-J	.
12GG-L	12ffL/	.
12B-	12d-	.
12D-J	12b-J	.
=29	=29	=29
12GGnL	12eenL\	.
12B-	12c#X	.
12EnJ	12b-J	.
12BB-L	12ggL	.
12c#X	12en	.
12EJ	12cc#J	.
12AAnL	12ff#XL	.
12cn	12e-X	.
12E-XJ	12ccnJ	.
!!LO:LB:g=original
=30	=30	=30
12CL	12aanL	.
12e-X	12f#X	.
12F#J	12ee-XJ	.
12BBnL	12gg#XL	.
12d	12fn	.
12FnJ	12ddJ	.
12DL	12bbnL	.
12f	12g#X	.
12G#XJ	12ffnJ	.
=31	=31	=31
12C#XL	12bb-XL	.
12en	12gn	.
12GnyJ	12eenJ	.
12EnL	12ddd-XL	.
12g	12b-	.
12B-J	12ggJ	.
12D#XL	12cccL	.
12f#X	12an	.
12AnJ	12ff#XJ	.
=32	=32	=32
12F#XL	12eee-XL	.
12an	12cc	.
12cJ	12aanJ	.
12FnL	12dddnyL	.
12a-X	12cc-X	.
12c-XJ	12aa-yJ	.
8B-	8fff	.
8r	8r	.
=33	=33	=33
*ped	*	*
12EE-L	12b-L	<
12G	12B-	.
12BB-J	12e-J	.
12EE-L	12ee-L	.
12G	12e-	.
12BB-J	12b-J	.
12EE-L	12ggL/	.
12B-	12g	.
12BB-J	12ee-J	.
=34	=34	=34
12EE-L	12bb-L	.
12e-	12b-	.
12GJ	12ggJ	.
12BB-L	12eee-L	.
12g	12ee-	.
12B-J	12bb-J	.
12E-L	12gggL	.
12b-	12ee-	.
*Xped	*	*
12B-J	12bb-J	[
!!LO:PB:g=original
=35	=35	=35
*ped	*	*
12E-L	12fffL	>
12bn	12dd	.
*Xped	*	*
12BnJ	12aa-J	.
*ped	*	*
12E-L	12eee-L	.
12cc	12ee-	.
*Xped	*	*
12cJ	12aa-J	.
*ped	*	*
12E-L	12cccL	.
12a-	12cc	.
*Xped	*	*
12dJ	12aa-J	]
=36	=36	=36
*ped	*	*
12E-L	12cccL	>
12g	12cc	.
*Xped	*	*
12e-J	12ggJ	.
*ped	*	*
12B-L	12bb-L	.
12g	12b-	.
12e-J	12ee-J	.
12E-L	12ggL	.
12e-	12g	.
*Xped	*	*
12GJ	12b-J	]]
=37	=37	=37
*ped	*	*
!LO:TX:t=P:mixed beam:problem	!	!
12FFL/	12ee-L	<
12c\	12e-	.
*Xped	*	*
12FJ\	12anJ	.
*ped	*	*
12CL	12ddL	.
12c	12d	.
*Xped	*	*
12FJ	12aJ	.
*ped	*	*
!LO:TX:t=P:mixed beam:problem	!	!
12FFL/	12ee-L	.
12c\	12e-	.
*Xped	*	*
12FJ\	12aJ	[
=38	=38	=38
*ped	*	*
12BB-L	12ggL/	>
12e-	12g	.
*Xped	*	*
12FJ	12b-J	.
*ped	*	*
12DL	12ffL/	.
12d	12f	.
12FJ	12b-J	.
12BB-L	12ddL	.
12B-	12d	.
*Xped	*	*
12FJ	12fJ	]
=39	=39	=39
*ped	*	*
!LO:TX:t=P:mixed beam:problem	!	!
12FFL/	12ee-L	<
12c\	12e-	.
*Xped	*	*
12FJ\	12anJ	.
*ped	*	*
12CL	12ddL	.
12Bn	12d	.
12FJ	12aJ	.
!LO:TX:t=P:mixed beam:problem	!	!
12FFL/	12ee-L	.
12c\	12e-	.
*Xped	*	*
12FJ\	12aJ	[
=40	=40	=40
*ped	*	*
12BB-L	12ggL/	>
12e-	12g	.
12A-J	12ccJ	.
*Xped	*	*
12FL	12ffL/	.
12d	12f	.
12A-J	12a-XJ	.
*ped	*	*
12BB-L	12ccL	.
12A-	12c	.
*Xped	*	*
12DJ	12fJ	]]
!!LO:LB:g=original
=41	=41	=41
12EE-L	12b-L	<
12G	12B-	.
12BB-J	12gJ	.
12EE-L	12ee-L	.
12G	12e-	.
12BB-J	12b-J	.
12EE-L	12ggL/	.
12B-	12g	.
12BB-J	12ee-J	.
=42	=42	=42
12EE-L	12bb-L	.
12e-	12b-	.
12GJ	12ggJ	.
12BB-L	12eee-L	.
12g	12ee-	.
12B-J	12bb-J	.
12E-L	12gggL	.
12b-	12ee-	.
12B-J	12bb-J	[
=43	=43	=43
*ped	*	*
12AAnL	12ggg-XL	.
12c	12ee-	.
*Xped	*	*
12G-XJ	12aanJ	.
*ped	*	*
12BBnL	12fffL	.
12d	12dd	.
*Xped	*	*
12A-XJ	12aa-XJ	.
*ped	*	*
12C#XL	12eeenL	.
12en	12cc#X	.
*Xped	*	*
12B-J	12ggJ	.
=44	=44	=44
*ped	*	*
12E-L	12eee-XL	.
12g-X	12ccn	.
*Xped	*	*
12cJ	12gg-XJ	.
*ped	*	*
12FL	12dddL	.
12a-	12bn	.
*Xped	*	*
12dJ	12ffJ	.
*ped	*	*
12GL	12ddd-XL	.
12b-	12dd-	.
*Xped	*	*
12enJ	12gg-J	.
=45	=45	=45
*ped	*	*
12A-L	12cccL	.
12a-	12cc	.
12fJ	12ffJ	.
12cL	12dddL	.
12a-	12cc	.
12fJ	12ffJ	.
12A-L	12eee-L	.
12a-	12cc	.
*Xped	*	*
12fJ	12ffJ	.
=46	=46	=46
*ped	*	*
12FL/	12fffL	>
*clefG2	*	*
12ee-	12ff	.
12a-J	12cccJ	.
12e-L	12gggL	.
12ee-	12gg	.
12a-J	12cccJ	.
12A-L	12fffL	.
12ee-	12ff	.
12a-J	12cccJ	]
*clefF4	*	*
!!LO:LB:g=original
=47	=47	=47
12AA-L	12cccL	.
*clefG2	*	*
12a-	12cc	>
12fJ	12ffJ	.
12cL	12dddL	.
12a-	12dd	.
12fJ	12ffJ	.
12FL	12cccL	.
12a-	12cc	.
*Xped	*	*
12e-J	12ffJ	]
*clefF4	*	*
=48	=48	=48
*ped	*	*
12BB-L	12ffL/	.
12e-	12f	.
*Xped	*	*
12A-J	12ccJ	.
12FL	12ggL/	>
12d	12f	.
12A-J	12ccJ	.
*ped	*	*
12BB-L	12ddL/	.
12B-	12d	.
*Xped	*	*
12A-J	12b-J	]
=49	=49	=49
*ped	*	*
12EE-L	12ee-L\	<
12G	12e-	.
12BB-J	12b-J	.
12EE-L	12bb-L	.
12B-	12b-	.
12BB-J	12ee-J	.
12EE-L	12ccc-XL	.
12G	12g	.
*Xped	*	*
12BB-J	12ee-J	[
=50	=50	=50
*ped	*	*
12EE-L	12bb-L	.
12A-	12a-	.
12BB-J	12ddJ	>
12EE-L	12bb--L	.
12B-X	12a-	.
12BB-J	12ddJ	.
12EE-L	12aa-L	.
12B-	12a-	.
*Xped	*	*
12BB-J	12ddJ	]
=51	=51	=51
*ped	*	*
12EE-L	12ggL	<
12B-	12g	.
12BB-J	12ee-J	.
12EE-L	12bb-L	.
12B-	12g	.
12BB-J	12ee-J	.
12EE-L	12cccL	.
12B-	12g	.
*Xped	*	*
12BB-J	12ee-J	[
=52	=52	=52
*ped	*	*
12EE-L	12bb-L	<
12A-	12a-	.
12BB-J	12ddJ	.
12EE-L	12bb--L	.
12B-	12a-	.
12BB-J	12ddJ	.
12EE-L	12aa-L	.
12B-	12a-	.
*Xped	*	*
12BB-J	12ddJ	[
!!LO:LB:g=original
=53	=53	=53
*ped	*	*
12EE-L	12ggL	<
12B-	12g	.
12BB-J	12ee-J	.
12EE-L	12bb-L	.
12B-	12b-	.
12BB-J	12ggJ	.
12EE-L/	12eee-L	.
12B-	12ee-	.
*Xped	*	*
12E-J	12bb-J	[
=54	=54	=54
*ped	*	*
12GGL	12gggL	>
12f	12dd	.
12BnJ	12bbnJ	.
12DL	12fffL	.
12f	12dd	.
*Xped	*	*
12BJ	12ggJ	.
*ped	*	*
12CL	12eee-L	.
12e-	12cc	.
*Xped	*	*
12GJ	12ggJ	.
=55	=55	=55
*ped	*	*
12AAnL	12eee-L	.
12e-	12cc	.
*Xped	*	*
12G-XJ	12gg-XJ	.
*ped	*	*
12E-L	12dddL	.
12e-	12bn	.
*Xped	*	*
12F#XJ	12ff#XJ	.
*ped	*	*
12AAL	12cccL	.
12e-	12cc	.
*Xped	*	*
12F#J	12ff#J	]
=56	=56	=56
*ped	*	*
12BB-L	12cccL	>
12d	12a-	.
12A-J	12ffJ	.
12FL	12bb-L	.
12d	12g	.
*Xped	*	*
12A-J	12ccJ	.
*ped	*	*
12BB-L	12aa-L	.
12B-	12f	.
*Xped	*	*
12A-J	12ddJ	]
=57	=57	=57
*ped	*	*
12EE-L	12ggL	<
12G	12e-	.
12BB-J	12ee-J	.
12EE-L	12bb-L	.
12B-	12g	.
12BB-J	12ee-J	.
12EE-L	12ccc-XL	.
12B-	12g	.
*Xped	*	*
12BB-J	12ee-J	[[
=58	=58	=58
*ped	*	*
12EE-L	12bb-L	>
12A-	12a-	.
12BB-J	12ddJ	.
12EE-L	12bb--L	.
12B-X	12a-	.
12BB-J	12ddJ	.
12EE-L	12aa-L	.
12B-	12a-	.
*Xped	*	*
12BB-J	12ddJ	]]
!!LO:LB:g=original
=59	=59	=59
*ped	*	*
12EE-L	12ggL	<
12A-	12g	.
12BB-J	12ee-J	.
12EE-L	12bb-L	.
12B-	12g	.
12BB-J	12ee-J	.
12EE-L	12cccL	.
12B-	12g	.
*Xped	*	*
12BB-J	12ee-J	[
=60	=60	=60
*ped	*	*
12EE-L	12bb-L	>
12A-	12a-	.
*Xped	*	*
12BB-J	12ddJ	.
*ped	*	*
12EE-L	12bb--L	.
12B-X	12a-	.
12BB-J	12ddJ	.
12EE-L	12aa-L	.
12B-	12a-	.
*Xped	*	*
12BB-J	12ddJ	]
=61	=61	=61
*ped	*	*
12EE-L	12ggL	<
12B-	12g	.
12BB-J	12ee-J	.
12EE-L	12bb-L	.
12B-	12b-	.
12BB-J	12ggJ	.
12GGL/	12eee-L	.
12B-	12ee-	.
*Xped	*	*
12BB-J	12bb-J	.
=62	=62	=62
!LO:TX:t=P:mixed beam:problem	!	!
12GGGL/	12gggL	.
*ped	*	*
12Bn\	12dd	.
12FJ\	12bbnJ	.
12GGL	12fffL	.
12B	12dd	.
*Xped	*	*
12FJ	12bbJ	.
*ped	*	*
12GG#XL	12eeenL	.
12B	12dd	.
*Xped	*	*
12EnJ	12bbJ	[
=63	=63	=63
*ped	*	*
12AAnL	12eeenL	>
*Xped	*	*
12c#X	12cc#X	.
12EnJ	12aanJ	.
*ped	*	*
12AAL	12eee-XL	.
12cn	12ccn	.
*Xped	*	*
12FJ	12aaJ	.
*ped	*	*
12AAL	12cccL	.
12e-X	12an	.
*Xped	*	*
12F#XJ	12ee-J	.
=64	=64	=64
*ped	*	*
12BB-L	12cccL	.
12e-	12an	.
*Xped	*	*
12F#XJ	12ee-J	.
*ped	*	*
12BB-L	12bb-L	.
12e-	12b-	.
*Xped	*	*
12GJ	12ee-J	.
*ped	*	*
!LO:TX:t=P:mixed beam:problem	!	!
12BBB-L/	12ddL\	.
12A-X\	12d	]
*Xped	*	*
12BB-J\	12b-J	.
!!LO:LB:g=original
=65	=65	=65
*ped	*	*
12EE-L	12ee-L/	.
12G	12e-	.
12BB-J	12b-J	.
!	!LO:TX:b:Bi:t=cres_:problem:dynamics with extention lines	!
!	!	!LO:HP:b:Bi:t=cres:ext=ud
12EE-L	12bb-L/	<
12B-	12e-	.
12BB-J	12b-J	.
12EE-L	12ee-L/	.
12G	12e-	.
*Xped	*	*
12BB-J	12b-J	.
=66	=66	=66
*ped	*	*
12EE-L	12aanL	.
12B-	12e-	.
12BB-J	12b-J	.
12EE-L	12ee-L\	.
12G	12e-	.
*Xped	*	*
12BB-J	12b-J	.
*ped	*	*
12EE-L	12aa-XL	.
12B-	12e-	.
12BB-J	12b-J	.
=67	=67	=67
12EE-L	12ee-L\	.
12G	12e-	.
*Xped	*	*
12BB-J	12b-J	.
*ped	*	*
12EE-L	12ggL	.
12B-	12e-	.
12BB-J	12b-J	.
12EE-L	12ee-L\	.
12G	12e-	.
*Xped	*	*
12BB-J	12b-J	.
=68	=68	=68
*ped	*	*
!	!LO:TX:b:Bi:t=dim_:problem:dynamics with extention lines	!
!	!	!LO:HP:b:Bi:t=dim:ext=ud
12EE-L	12ff#XL	[ >
12B-	12e-	.
12BB-J	12b-J	.
12EE-L	12ee-L\	.
*Xped	*	*
12G	12e-	.
12BB-J	12b-J	.
*ped	*	*
12EE-L	12ggL	.
12B-	(>12e-	.
12BB-J	12b-J	]
=69	=69	=69
*Xped	*	*
4EE-	4ee-)	.
4r	4r	.
4r	4r	.
*clefG2	*	*
=70	=70	=70
*	*8va	*
4gg 4ee- 4b- 4g	4eeee- 4bbb- 4eee-	ff
*	*X8va	*
4r	4r	.
4r	4r	.
*clefF4	*	*
=71	=71	=71
!LO:TX:b:B:t=Fine.	!	!
2.E- 2.BB- 2.EE-	2.g 2.e- 2.B-< 2.G<	.
==	==	==
*-	*-	*-
!!title: @{OTL}; @{OPS} @{ONM} publisher: @{PPR}
!!!RDF**kern: > = above
!!!RDF**kern: < = below
!!!RDF**kern: N = linked
!!!RDF**kern: i = editorial accidental, bracket
!!!RDF**kern: i = marked note, color="hotpink", text=
!!!ENC: Wojciech Jakubiak-Danek
!!!END: 2019-07-02
!!!EED: Zofia Niedbalska
!!!EST: 2020-04-24
!!!EED2: Wojciech Jakubiak-Danek
!!!EST2: 2020-05-17
!!!rism-genre: Prelude
!!!rism-key: E-flat major
!!!rism-opus: op.  28, no. 19
!!!rism-title: Prelude in E-flat major op.  28, no. 19
!!!rism-permalink: https://opac.rism.info/search?id=1001013147&View=rism
!!!rism-773a-OPR: 1001013083
!!!rism-parent-permalink: https://opac.rism.info/search?id=1001013083&View=rism
